X: 6
T: Now She's Purring
R: reel
M: 4/4
L: 1/8
K: Gmaj
|G3A B2gB|BAGB AGED|DGGF GA (3Bcd|egfa gedB|
G3A B2B2|BAGB AGEG|DGGF GABd|(3efg fa g3d||
gfga bgaf|gaba gfed|(3Bcd BA GA (3Bcd|egfa gfed|
g3a bgaf|g2g2 gfed|B3A GABd|(3efg fa gedB||

